X:7
T:Astley's Hornpipe
S:John Moore's Book 1
Z:Transcribed by Paul Barber-Riley  March 2016
M:C|
L:1/8
K:F
%%VWML: Moore1-4493-p5-0
F:http://www.vwml.org/record/Moore1/4493/p5
FGAB cAGF | gfed d2c2 | AcAF BcBG | AcAF FED[cC] |
FGAB cAGF | gfed d2c2 | AcAF BcBG |F2E2F4:|
cdef egec | fafd egec | cdef gedc | AcAF EGE[cC] |
[AA,]cAF DdBG | Egec Fafd | cfed cBAG | F2E2F4:|
